www/assets/icons/sensor_window.svg

<svg xmlns="http://www.w3.org/2000/svg" width="24" height="24" viewBox="0 0 24 24" fill='currentColor'><path d="M18 4v16H6V4zm0-2H6c-1.1 0-2 .9-2 2v16c0 1.1.9 2 2 2h12c1.1 0 2-.9 2-2V4c0-1.1-.9-2-2-2M7 19h10v-6H7zm3-9h4v1h3V5H7v6h3z"/></svg>

<svg width="24" height="24" viewBox="0 0 24 24" xmlns="http://www.w3.org/2000/svg" fill='currentColor'><path d="M18 4V20H6V4H18ZM18 2H6C4.9 2 4 2.9 4 4V20C4 21.1 4.9 22 6 22H18C19.1 22 20 21.1 20 20V4C20 2.9 19.1 2 18 2ZM7 19H17V13H7V19ZM10 10H14V11H17V5H7V11H10V10Z"/></svg>
